X:0126
T:Quick Step 42d. Regt.
N:Seems to be a distant relative of The Flowers of the Forest.
N:"GB" in bars 2 and 6 written with two sets of beams, a 2-note
N:one upwards and a downward beam for the whole 4-note bar; I've
N:got no idea what this means.
N:no repeat printed at the end
M:2/4
L:1/8
Q:1/4=84
I: :: ||
Z:Jack Campin * www.campin.me.uk * 2009
K:G
G2B2|GBBg|dBAG| AFED|G2B2|GBBg|dBAG|TA2G2:|
gfed|efga|gfed|Te2d2|gfed|efge|dBAG|TA2G2||

